flaticon/baby/crib.svg

<svg xmlns="http://www.w3.org/2000/svg" width="32" height="32" viewBox="0 0 24 24">
    <path d="M 24 7.601562 C 24 6.277344 22.921875 5.199219 21.601562 5.199219 C 20.277344 5.199219 19.199219 6.277344 19.199219 7.601562 C 19.199219 8.308594 19.511719 8.945312 20 9.382812 L 20 12.398438 L 4 12.398438 L 4 9.382812 C 4.488281 8.945312 4.800781 8.308594 4.800781 7.601562 C 4.800781 6.277344 3.722656 5.199219 2.398438 5.199219 C 1.078125 5.199219 0 6.277344 0 7.601562 C 0 8.308594 0.308594 8.945312 0.800781 9.382812 L 0.800781 24 L 4 24 L 4 22.398438 L 20 22.398438 L 20 24 L 23.199219 24 L 23.199219 9.382812 C 23.691406 8.945312 24 8.308594 24 7.601562 Z M 20 15.199219 L 18 15.199219 L 18 13.199219 L 20 13.199219 Z M 11.601562 15.199219 L 9.601562 15.199219 L 9.601562 13.199219 L 11.601562 13.199219 Z M 12.398438 13.199219 L 14.398438 13.199219 L 14.398438 15.199219 L 12.398438 15.199219 Z M 8.800781 15.199219 L 6.800781 15.199219 L 6.800781 13.199219 L 8.800781 13.199219 Z M 8.800781 16 L 8.800781 21.601562 L 6.800781 21.601562 L 6.800781 16 Z M 9.601562 16 L 11.601562 16 L 11.601562 21.601562 L 9.601562 21.601562 Z M 12.398438 16 L 14.398438 16 L 14.398438 21.601562 L 12.398438 21.601562 Z M 15.199219 16 L 17.199219 16 L 17.199219 21.601562 L 15.199219 21.601562 Z M 15.199219 15.199219 L 15.199219 13.199219 L 17.199219 13.199219 L 17.199219 15.199219 Z M 6 13.199219 L 6 15.199219 L 4 15.199219 L 4 13.199219 Z M 2.398438 6 C 3.28125 6 4 6.71875 4 7.601562 C 4 8.121094 3.746094 8.578125 3.359375 8.871094 L 3.351562 8.878906 C 3.285156 8.929688 3.214844 8.96875 3.144531 9.007812 C 3.136719 9.011719 3.128906 9.015625 3.121094 9.019531 C 3.050781 9.054688 2.980469 9.085938 2.910156 9.109375 C 2.898438 9.113281 2.882812 9.117188 2.871094 9.121094 C 2.5625 9.214844 2.234375 9.214844 1.925781 9.121094 C 1.914062 9.117188 1.902344 9.113281 1.890625 9.109375 C 1.820312 9.085938 1.75 9.054688 1.679688 9.023438 C 1.671875 9.015625 1.664062 9.011719 1.65625 9.007812 C 1.585938 8.96875 1.515625 8.929688 1.449219 8.878906 L 1.445312 8.875 C 1.054688 8.582031 0.800781 8.121094 0.800781 7.601562 C 0.800781 6.71875 1.519531 6 2.398438 6 Z M 3.199219 23.199219 L 1.601562 23.199219 L 1.601562 9.859375 C 1.722656 9.902344 1.851562 9.9375 1.984375 9.960938 C 1.992188 9.960938 2 9.964844 2.007812 9.964844 C 2.136719 9.988281 2.265625 10 2.398438 10 C 2.535156 10 2.664062 9.988281 2.792969 9.964844 C 2.800781 9.964844 2.808594 9.964844 2.816406 9.960938 C 2.949219 9.9375 3.074219 9.902344 3.199219 9.859375 Z M 4 16 L 6 16 L 6 21.601562 L 4 21.601562 Z M 18 21.601562 L 18 16 L 20 16 L 20 21.601562 Z M 22.398438 23.199219 L 20.800781 23.199219 L 20.800781 9.859375 C 20.925781 9.902344 21.050781 9.9375 21.183594 9.960938 C 21.191406 9.960938 21.199219 9.964844 21.207031 9.964844 C 21.335938 9.988281 21.464844 10 21.601562 10 C 21.734375 10 21.863281 9.988281 21.992188 9.964844 C 22 9.964844 22.007812 9.964844 22.015625 9.960938 C 22.148438 9.9375 22.277344 9.902344 22.398438 9.859375 Z M 22.558594 8.871094 L 22.550781 8.878906 C 22.484375 8.925781 22.417969 8.96875 22.347656 9.007812 C 22.335938 9.011719 22.328125 9.015625 22.320312 9.019531 C 22.25 9.054688 22.179688 9.085938 22.109375 9.109375 C 22.097656 9.113281 22.085938 9.117188 22.070312 9.121094 C 21.765625 9.214844 21.433594 9.214844 21.128906 9.121094 C 21.113281 9.117188 21.101562 9.113281 21.089844 9.109375 C 21.019531 9.085938 20.949219 9.054688 20.878906 9.019531 C 20.871094 9.015625 20.863281 9.011719 20.855469 9.007812 C 20.78125 8.96875 20.714844 8.925781 20.648438 8.878906 L 20.644531 8.875 C 20.253906 8.582031 20 8.121094 20 7.601562 C 20 6.71875 20.71875 6 21.601562 6 C 22.480469 6 23.199219 6.71875 23.199219 7.601562 C 23.199219 8.121094 22.945312 8.578125 22.558594 8.871094 Z M 22.558594 8.871094"/>
    <path d="M 6.621094 8.847656 L 6.429688 9.949219 C 6.40625 10.101562 6.464844 10.253906 6.589844 10.339844 C 6.710938 10.429688 6.875 10.441406 7.011719 10.371094 L 8 9.851562 L 8.988281 10.371094 C 9.046875 10.402344 9.113281 10.417969 9.175781 10.417969 C 9.257812 10.417969 9.339844 10.390625 9.410156 10.339844 C 9.535156 10.253906 9.59375 10.101562 9.570312 9.949219 L 9.378906 8.847656 L 10.179688 8.070312 C 10.289062 7.960938 10.328125 7.804688 10.28125 7.660156 C 10.234375 7.515625 10.109375 7.410156 9.960938 7.386719 L 8.851562 7.226562 L 8.414062 6.335938 C 8.542969 4.648438 9.90625 3.308594 11.597656 3.210938 L 11.597656 7.757812 C 11.527344 7.804688 11.460938 7.859375 11.414062 7.929688 L 10.425781 9.335938 C 10.277344 9.550781 10.253906 9.8125 10.371094 10.03125 C 10.488281 10.257812 10.734375 10.398438 11.015625 10.398438 L 12.984375 10.398438 C 13.265625 10.398438 13.511719 10.257812 13.628906 10.03125 C 13.746094 9.8125 13.722656 9.550781 13.574219 9.335938 L 12.585938 7.929688 C 12.539062 7.855469 12.472656 7.804688 12.398438 7.757812 L 12.398438 3.257812 C 13.925781 3.53125 15.097656 4.820312 15.191406 6.398438 L 14.398438 6.398438 C 14.179688 6.398438 14 6.578125 14 6.800781 L 14 8.800781 C 14 9.019531 14.179688 9.199219 14.398438 9.199219 L 16.800781 9.199219 C 17.019531 9.199219 17.199219 9.019531 17.199219 8.800781 L 17.199219 6.800781 C 17.199219 6.578125 17.019531 6.398438 16.800781 6.398438 L 15.988281 6.398438 C 15.894531 4.378906 14.367188 2.730469 12.398438 2.449219 L 12.398438 0.398438 C 12.398438 0.179688 12.222656 0 12 0 C 11.777344 0 11.601562 0.179688 11.601562 0.398438 L 11.601562 2.410156 C 9.488281 2.511719 7.777344 4.175781 7.617188 6.273438 L 7.144531 7.226562 L 6.039062 7.386719 C 5.890625 7.40625 5.765625 7.511719 5.71875 7.660156 C 5.671875 7.804688 5.710938 7.960938 5.820312 8.070312 Z M 16.398438 8.398438 L 14.800781 8.398438 L 14.800781 7.199219 L 16.398438 7.199219 Z M 12.78125 9.601562 L 11.21875 9.601562 L 12 8.484375 Z M 7.46875 7.988281 C 7.601562 7.96875 7.710938 7.886719 7.769531 7.769531 L 8 7.304688 L 8.230469 7.769531 C 8.289062 7.886719 8.398438 7.96875 8.53125 7.988281 L 9.042969 8.0625 L 8.671875 8.421875 C 8.578125 8.515625 8.535156 8.648438 8.558594 8.777344 L 8.644531 9.285156 L 8.1875 9.046875 C 8.128906 9.015625 8.0625 9 8 9 C 7.9375 9 7.871094 9.015625 7.8125 9.046875 L 7.355469 9.285156 L 7.441406 8.777344 C 7.464844 8.648438 7.421875 8.515625 7.328125 8.421875 L 6.957031 8.0625 Z M 7.46875 7.988281"/>
</svg>

<svg xmlns="http://www.w3.org/2000/svg" width="32" height="32" viewBox="0 0 24 24">
    <path d="M24 7.602a2.405 2.405 0 0 0-2.398-2.403 2.406 2.406 0 0 0-2.403 2.403c0 .707.313 1.343.801 1.78v3.016H4V9.383a2.39 2.39 0 0 0 .8-1.781 2.406 2.406 0 0 0-2.402-2.403A2.405 2.405 0 0 0 0 7.602c0 .707.309 1.343.8 1.78V24H4v-1.602h16V24h3.2V9.383c.491-.438.8-1.074.8-1.781zm-4 7.597h-2v-2h2zm-8.398 0h-2v-2h2zm.796-2h2v2h-2zm-3.597 2h-2v-2h2zm0 .801v5.602h-2V16zm.8 0h2v5.602h-2zm2.797 0h2v5.602h-2zm2.801 0h2v5.602h-2zm0-.8v-2h2v2zM6 13.2v2H4v-2zM2.398 6C3.281 6 4 6.719 4 7.602c0 .52-.254.976-.64 1.27l-.008.007c-.067.05-.137.09-.207.129l-.024.012c-.07.035-.14.066-.21.09l-.04.011a1.624 1.624 0 0 1-.945 0L1.89 9.11c-.07-.023-.141-.054-.211-.086-.008-.007-.016-.011-.024-.015-.07-.04-.14-.078-.207-.13l-.004-.003a1.59 1.59 0 0 1-.644-1.273C.8 6.719 1.52 6 2.398 6zM3.2 23.2H1.602V9.86c.12.042.25.078.382.1.008 0 .016.005.024.005a2.169 2.169 0 0 0 .785 0c.008 0 .016 0 .023-.004.133-.024.258-.059.383-.102zM4 16h2v5.602H4zm14 5.602V16h2v5.602zm4.398 1.597h-1.597V9.86c.125.043.25.079.383.102.007 0 .015.004.023.004a2.18 2.18 0 0 0 .785 0c.008 0 .016 0 .024-.004.132-.024.261-.059.382-.102zm.16-14.328l-.007.008c-.067.047-.133.09-.203.129a1.627 1.627 0 0 1-.238.102l-.04.011a1.61 1.61 0 0 1-.941 0l-.04-.012a1.627 1.627 0 0 1-.21-.09l-.024-.011a1.844 1.844 0 0 1-.207-.13l-.003-.003A1.59 1.59 0 0 1 20 7.602C20 6.719 20.719 6 21.602 6c.878 0 1.597.719 1.597 1.602 0 .52-.254.976-.64 1.27zm0 0"/>
    <path d="M6.621 8.848L6.43 9.949a.401.401 0 1 0 .582.422L8 9.851l.988.52a.404.404 0 0 0 .188.047.402.402 0 0 0 .234-.078.396.396 0 0 0 .16-.39L9.38 8.847l.8-.778a.402.402 0 0 0-.218-.683l-1.11-.16-.437-.891a3.394 3.394 0 0 1 3.184-3.125v4.547a.643.643 0 0 0-.184.172l-.988 1.406a.661.661 0 0 0-.055.695.711.711 0 0 0 .645.367h1.968c.282 0 .528-.14.645-.367a.661.661 0 0 0-.055-.695l-.988-1.406a.565.565 0 0 0-.188-.172v-4.5a3.401 3.401 0 0 1 2.793 3.14h-.793a.401.401 0 0 0-.398.403v2a.4.4 0 0 0 .398.398h2.403a.4.4 0 0 0 .398-.398v-2a.401.401 0 0 0-.398-.403h-.813a4.193 4.193 0 0 0-3.59-3.949V.4a.398.398 0 1 0-.796 0V2.41a4.2 4.2 0 0 0-3.985 3.863l-.472.954-1.106.16a.402.402 0 0 0-.219.684zm9.777-.45h-1.597V7.2h1.597zm-3.617 1.204H11.22L12 8.484zM7.47 7.988a.399.399 0 0 0 .3-.218L8 7.305l.23.465c.06.117.168.199.301.218l.512.074-.371.36a.402.402 0 0 0-.113.355l.086.508-.457-.238a.404.404 0 0 0-.376 0l-.457.238.086-.508a.402.402 0 0 0-.113-.355l-.371-.36zm0 0"/>
</svg>
